svg/l/VE.svg

<svg width="32" height="24" viewBox="0 0 32 24" fill="none" xmlns="http://www.w3.org/2000/svg">
<g clip-path="url(#clip0_270_67535)">
<rect width="32" height="24" fill="white"/>
<path fill-rule="evenodd" clip-rule="evenodd" d="M0 0V24H32V0H0Z" fill="#2E42A5"/>
<mask id="mask0_270_67535" style="mask-type:luminance" maskUnits="userSpaceOnUse" x="0" y="0" width="32" height="24">
<path fill-rule="evenodd" clip-rule="evenodd" d="M0 0V24H32V0H0Z" fill="white"/>
</mask>
<g mask="url(#mask0_270_67535)">
<path fill-rule="evenodd" clip-rule="evenodd" d="M0 0V8H32V0H0Z" fill="#FECA00"/>
<path fill-rule="evenodd" clip-rule="evenodd" d="M0 16V24H32V16H0Z" fill="#E31D1C"/>
<path fill-rule="evenodd" clip-rule="evenodd" d="M12.7368 11.8594L13.7195 11.3019L14.8221 11.8594L14.4262 10.7264L15.2497 9.89379H14.2016L13.718 8.82159L13.3057 9.89379H12.0762L13.0007 10.7115H11.9638L11.4803 9.6393L11.0679 10.7115H9.8384L10.7797 11.5441L10.5998 12.2704H9.81525L9.33171 11.1982L8.91934 12.2704H7.68983L8.63117 13.103L8.45707 13.8059H8.11358L7.63004 12.7337L7.21767 13.8059H5.98816L6.9295 14.6385L6.64884 15.7715L7.63152 15.214L8.73414 15.7715L8.33817 14.6385L9.1617 13.8059H9.10879L9.33319 13.6786L10.4358 14.236L10.0398 13.103L10.5118 12.6259L10.4991 12.6771L11.4818 12.1196L12.5844 12.6771L12.1884 11.5441L13.0067 10.7168L13.0175 10.7264L12.7368 11.8594Z" fill="#F7FCFF"/>
<path fill-rule="evenodd" clip-rule="evenodd" d="M19.223 11.8156L18.2403 11.2581L17.1377 11.8156L17.5337 10.6826L16.7101 9.84996H17.7583L18.2418 8.77777L18.6542 9.84996H19.8837L18.9592 10.6677H20.0009L20.4844 9.59547L20.8968 10.6677H22.1263L21.185 11.5003L21.3649 12.2266H22.1495L22.633 11.1544L23.0454 12.2266H24.2749L23.3336 13.0592L23.5077 13.762H23.8511L24.3347 12.6898L24.747 13.762H25.9766L25.0352 14.5946L25.3159 15.7277L24.3332 15.1702L23.2306 15.7277L23.6266 14.5946L22.803 13.762H22.8559L22.6315 13.6347L21.5289 14.1922L21.9249 13.0592L21.453 12.5821L21.4656 12.6333L20.483 12.0758L19.3803 12.6333L19.7763 11.5003L18.9558 10.6707L18.9423 10.6826L19.223 11.8156Z" fill="#F7FCFF"/>
<path fill-rule="evenodd" clip-rule="evenodd" d="M15.8329 10.5347L14.8503 11.0922L15.1309 9.95917L14.1896 9.12657H15.4191L15.8315 8.05438L16.315 9.12657H17.3631L16.5396 9.95917L16.9356 11.0922L15.8329 10.5347Z" fill="#F7FCFF"/>
</g>
</g>
<defs>
<clipPath id="clip0_270_67535">
<rect width="32" height="24" fill="white"/>
</clipPath>
</defs>
</svg>

<svg width="32" height="24" fill="none" xmlns="http://www.w3.org/2000/svg">
  <mask id="a" maskUnits="userSpaceOnUse" x="0" y="0" width="32" height="24">
    <path fill="#fff" d="M0 0h32v24H0z"/>
  </mask>
  <g mask="url(#a)">
    <path fill-rule="evenodd" clip-rule="evenodd" d="M0 0v24h32V0H0z" fill="#2E42A5"/>
    <mask id="b" maskUnits="userSpaceOnUse" x="0" y="0" width="32" height="24">
      <path fill-rule="evenodd" clip-rule="evenodd" d="M0 0v24h32V0H0z" fill="#fff"/>
    </mask>
    <g mask="url(#b)" fill-rule="evenodd" clip-rule="evenodd">
      <path d="M0 0v8h32V0H0z" fill="#FECA00"/>
      <path d="M0 16v8h32v-8H0z" fill="#E31D1C"/>
      <path d="M12.737 11.86l.982-.558 1.103.557-.396-1.133.824-.832h-1.048l-.484-1.072-.412 1.072h-1.23l.925.817h-1.037L11.48 9.64l-.412 1.072h-1.23l.942.833-.18.726h-.785l-.483-1.072-.413 1.072H7.69l.942.833-.174.703h-.343l-.484-1.072-.412 1.072h-1.23l.941.833-.28 1.133.983-.558 1.102.557-.396-1.133.824-.832H9.11l.224-.127 1.103.557-.396-1.133.472-.477-.013.051.983-.557 1.102.557-.396-1.133.819-.827.01.01-.28 1.132zm6.486-.044l-.983-.558-1.102.558.396-1.133-.824-.833h1.048l.484-1.072.412 1.072h1.23l-.925.818h1.042l.483-1.073.413 1.073h1.23l-.942.832.18.727h.785l.483-1.073.412 1.073h1.23l-.941.832.174.703h.343l.484-1.072.412 1.072h1.23l-.942.833.28 1.133-.982-.558-1.102.558.396-1.133-.824-.833h.053l-.225-.127-1.102.557.396-1.133-.472-.477.013.051-.983-.557-1.103.557.396-1.133-.82-.83-.014.013.281 1.133z" fill="#F7FCFF"/>
      <path d="M15.833 10.535l-.983.557.28-1.133-.94-.832h1.23l.412-1.073.483 1.073h1.048l-.823.832.396 1.133-1.103-.557z" fill="#F7FCFF"/>
    </g>
  </g>
</svg>
